X: 21981
T: Kitty O'Shea's
R: barndance
M: 4/4
K: Gmajor
|:GA|B2BA B2BA|B2Be dBAG|A2 AG A2 AG|Agfe dcBA|
B2BA B2BA|B2Be dBAG|B3G A3g|fdcA G2:|
|:GA|B2gB B2gB|c2a2 A3B|cBcd efge|dcBA B2 GA|
B2gB B2gB|c2a2 A3B|cBcd efge|dcBA G2:|
|:GA|Beef edcA|Beef edcA|Beef edef|gdBG A2:|
|:G2|GB D2 G2Gc|BGBd efg2|GB D2 G2Gc|BAGB A3z|
GB D2 G2Gc|BGBd efg2|gefd ecdB|cAFA G2:|
|:e2|e2eg edBG|G2 GG D3G|G2 GG GcBA|GDGB d2 e2|
e2eg edBG|G2 GG D3G|G2 GG GcBA|G4G2:|
|:c2|DBBD BDBD|DBBA BAGB|AffA fAfA|Affe fedA|
DBBD BDBD|DBBA BAGB|AffA Afag|fdcA G2:|
|:AB|ed B2 ed B2|eGBg edBc|e2{f}ed cBAG|AGFE D3z|
ed B2 ed B2|eGBg edBc|e2{f}ed cBAG|FGAF G2:|

